public/logos/8H.svg

<?xml version="1.0" encoding="UTF-8"?>
<svg xmlns="http://www.w3.org/2000/svg" xmlns:xlink="http://www.w3.org/1999/xlink" width="176pt" height="38.11pt" viewBox="0 0 176 38.11" version="1.1">
<defs>
<clipPath id="clip1">
  <path d="M 10 19 L 38 19 L 38 38.109375 L 10 38.109375 Z M 10 19 "/>
</clipPath>
</defs>
<g id="surface1">
<path style=" stroke:none;fill-rule:nonzero;fill:rgb(15.545654%,30.19104%,64.250183%);fill-opacity:1;" d="M 7.53125 18.441406 C 20.667969 18.054688 29.121094 12.832031 33.65625 8.375 C 32.042969 6.144531 29.890625 4.070312 27.203125 2.535156 C 22.667969 11.832031 14.445312 16.902344 7.53125 18.285156 L 7.53125 18.441406 "/>
<path style=" stroke:none;fill-rule:nonzero;fill:rgb(25.222778%,63.539124%,79.13208%);fill-opacity:1;" d="M 34.347656 9.449219 C 30.503906 13.214844 24.359375 16.828125 17.441406 18.285156 L 17.441406 18.441406 L 37.34375 18.441406 C 37.34375 15.902344 36.34375 12.601562 34.347656 9.449219 "/>
<path style=" stroke:none;fill-rule:nonzero;fill:rgb(15.289307%,16.125488%,43.319702%);fill-opacity:1;" d="M 0 18.824219 C 9.988281 18.824219 20.210938 13.292969 26.125 1.996094 C 23.589844 0.765625 20.667969 0 17.367188 0 C 17.367188 5.222656 15.136719 17.289062 0 18.671875 L 0 18.824219 "/>
<path style=" stroke:none;fill-rule:nonzero;fill:rgb(95.628357%,42.941284%,8.74176%);fill-opacity:1;" d="M 29.046875 19.667969 C 15.90625 20.054688 8.222656 25.664062 3.6875 30.121094 C 5.300781 32.347656 6.683594 34.039062 9.375 35.574219 C 13.90625 26.277344 22.128906 21.207031 29.046875 19.824219 L 29.046875 19.667969 "/>
<path style=" stroke:none;fill-rule:nonzero;fill:rgb(93.803406%,93.226624%,5.377197%);fill-opacity:1;" d="M 2.996094 29.042969 C 6.839844 25.28125 12.21875 21.28125 19.132812 19.824219 L 19.132812 19.667969 L 0 20.054688 C 0 22.589844 1 25.894531 2.996094 29.042969 "/>
<g clip-path="url(#clip1)" clip-rule="nonzero">
<path style=" stroke:none;fill-rule:nonzero;fill:rgb(92.980957%,11.471558%,14.03656%);fill-opacity:1;" d="M 37.34375 19.667969 C 27.355469 19.667969 16.367188 24.816406 10.449219 36.113281 C 12.984375 37.34375 15.90625 38.109375 19.210938 38.109375 C 19.210938 32.886719 22.207031 21.207031 37.34375 19.824219 L 37.34375 19.667969 "/>
</g>
<path style=" stroke:none;fill-rule:nonzero;fill:rgb(15.289307%,16.125488%,43.319702%);fill-opacity:1;" d="M 46.503906 28.332031 L 44.90625 28.332031 L 44.90625 25.078125 L 46.503906 25.078125 C 47.378906 25.078125 48.101562 25.796875 48.101562 26.703125 C 48.101562 27.609375 47.378906 28.332031 46.503906 28.332031 Z M 44.90625 21.25 L 46.382812 21.25 C 47.148438 21.25 47.78125 21.832031 47.78125 22.554688 C 47.78125 23.277344 47.148438 23.863281 46.382812 23.863281 L 44.90625 23.863281 Z M 49.132812 24.691406 L 49.132812 24.632812 C 50.40625 24.308594 51.175781 23.402344 51.175781 22.230469 C 51.175781 20.726562 49.839844 19.710938 47.410156 19.710938 L 41.046875 19.710938 L 41.046875 20.265625 C 41.507812 20.265625 41.910156 20.679688 41.910156 21.34375 L 41.910156 28.242188 C 41.910156 28.902344 41.507812 29.316406 41.046875 29.316406 L 41.046875 29.871094 L 47.917969 29.871094 C 50.4375 29.871094 51.820312 28.949219 51.820312 27.226562 C 51.820312 25.90625 50.714844 24.890625 49.132812 24.691406 "/>
<path style=" stroke:none;fill-rule:nonzero;fill:rgb(15.289307%,16.125488%,43.319702%);fill-opacity:1;" d="M 57.953125 27.457031 C 57.953125 27.609375 57.324219 28.210938 56.800781 28.210938 C 56.277344 28.210938 55.617188 27.949219 55.632812 27.242188 C 55.648438 26.644531 56.183594 26.441406 56.800781 26.257812 C 57.199219 26.136719 57.628906 26.027344 57.953125 25.8125 Z M 60.996094 28.304688 L 60.996094 24.921875 C 60.996094 22.847656 59.414062 22.0625 56.894531 22.0625 C 55.894531 22.0625 54.496094 22.355469 53.664062 22.617188 L 53.511719 24.691406 L 54.082031 24.691406 L 54.25 24.335938 C 54.617188 23.570312 55.449219 23.371094 56.203125 23.355469 C 57.429688 23.339844 57.953125 23.910156 57.953125 24.570312 L 57.953125 24.84375 C 57.140625 25.183594 55.695312 25.445312 54.679688 25.535156 C 53.773438 25.613281 52.820312 26.304688 52.820312 27.597656 C 52.820312 29.039062 53.878906 30.070312 55.277344 30.070312 C 56.414062 30.070312 57.429688 29.394531 58 28.703125 L 58.136719 28.703125 L 58.214844 29.871094 C 59.367188 29.792969 60.503906 29.792969 61.65625 29.871094 L 61.65625 29.316406 C 61.195312 29.316406 60.996094 28.964844 60.996094 28.304688 "/>
<path style=" stroke:none;fill-rule:nonzero;fill:rgb(15.289307%,16.125488%,43.319702%);fill-opacity:1;" d="M 66.480469 28.242188 L 66.480469 20.757812 C 66.480469 20.128906 66.527344 19.234375 66.589844 18.589844 L 66.527344 18.558594 C 65.238281 19.097656 63.886719 19.40625 62.503906 19.574219 L 62.503906 20.128906 C 62.964844 20.128906 63.484375 20.617188 63.484375 21.28125 L 63.484375 28.242188 C 63.484375 28.902344 63.085938 29.316406 62.625 29.316406 L 62.625 29.871094 C 64.191406 29.792969 65.777344 29.792969 67.34375 29.871094 L 67.34375 29.316406 C 66.882812 29.316406 66.480469 28.902344 66.480469 28.242188 "/>
<path style=" stroke:none;fill-rule:nonzero;fill:rgb(15.289307%,16.125488%,43.319702%);fill-opacity:1;" d="M 76.808594 28.195312 L 75.273438 24.890625 L 76.933594 23.167969 C 77.085938 23.015625 77.300781 22.816406 77.457031 22.816406 L 77.457031 22.261719 L 73.335938 22.261719 L 73.335938 22.816406 C 74.011719 22.816406 74.320312 23.078125 74.320312 23.417969 C 74.320312 23.570312 74.210938 23.800781 73.980469 24.089844 L 72.691406 25.660156 L 72.230469 25.660156 L 72.230469 20.757812 C 72.230469 20.09375 72.277344 19.175781 72.335938 18.527344 C 71.03125 19.082031 69.648438 19.40625 68.25 19.574219 L 68.25 20.128906 C 68.710938 20.128906 69.230469 20.617188 69.230469 21.28125 L 69.230469 28.242188 C 69.230469 28.902344 68.832031 29.316406 68.371094 29.316406 L 68.371094 29.871094 C 69.941406 29.792969 71.523438 29.792969 73.089844 29.871094 L 73.089844 29.316406 C 72.628906 29.316406 72.230469 28.902344 72.230469 28.242188 L 72.230469 26.457031 L 72.628906 26.457031 L 73.734375 28.996094 C 73.859375 29.285156 74.042969 29.625 74.226562 29.871094 C 75.457031 29.792969 76.671875 29.792969 77.902344 29.871094 L 77.902344 29.316406 C 77.667969 29.332031 77.070312 28.761719 76.808594 28.195312 "/>
<path style=" stroke:none;fill-rule:nonzero;fill:rgb(15.289307%,16.125488%,43.319702%);fill-opacity:1;" d="M 83.925781 27.457031 C 83.925781 27.609375 83.292969 28.210938 82.773438 28.210938 C 82.25 28.210938 81.589844 27.949219 81.605469 27.242188 C 81.617188 26.644531 82.15625 26.441406 82.773438 26.257812 C 83.171875 26.136719 83.601562 26.027344 83.925781 25.8125 Z M 86.96875 28.304688 L 86.96875 24.921875 C 86.96875 22.847656 85.386719 22.0625 82.863281 22.0625 C 81.867188 22.0625 80.46875 22.355469 79.636719 22.617188 L 79.484375 24.691406 L 80.050781 24.691406 L 80.21875 24.335938 C 80.589844 23.570312 81.417969 23.371094 82.171875 23.355469 C 83.402344 23.339844 83.925781 23.910156 83.925781 24.570312 L 83.925781 24.84375 C 83.109375 25.183594 81.664062 25.445312 80.652344 25.535156 C 79.746094 25.613281 78.792969 26.304688 78.792969 27.597656 C 78.792969 29.039062 79.851562 30.070312 81.25 30.070312 C 82.386719 30.070312 83.402344 29.394531 83.96875 28.703125 L 84.109375 28.703125 L 84.183594 29.871094 C 85.339844 29.792969 86.476562 29.792969 87.628906 29.871094 L 87.628906 29.316406 C 87.167969 29.316406 86.96875 28.964844 86.96875 28.304688 "/>
<path style=" stroke:none;fill-rule:nonzero;fill:rgb(15.289307%,16.125488%,43.319702%);fill-opacity:1;" d="M 97.785156 28.242188 L 97.785156 24.890625 C 97.785156 23.015625 96.574219 22.261719 95.390625 22.261719 C 94.3125 22.261719 93.390625 22.910156 92.898438 23.246094 C 92.914062 22.738281 92.945312 22.1875 92.992188 21.726562 L 92.824219 21.617188 C 91.578125 22.125 90.257812 22.433594 88.917969 22.585938 L 88.917969 23.140625 C 89.382812 23.140625 89.902344 23.628906 89.902344 24.292969 L 89.902344 28.242188 C 89.902344 28.902344 89.503906 29.316406 89.042969 29.316406 L 89.042969 29.871094 C 90.578125 29.792969 92.128906 29.792969 93.667969 29.871094 L 93.667969 29.316406 C 93.296875 29.316406 92.898438 28.902344 92.898438 28.242188 L 92.898438 24.9375 C 93.128906 24.691406 93.5 24.355469 93.945312 24.292969 C 94.34375 24.230469 94.789062 24.523438 94.789062 25.105469 L 94.789062 28.242188 C 94.789062 28.902344 94.390625 29.316406 94.023438 29.316406 L 94.023438 29.871094 C 95.558594 29.792969 97.109375 29.792969 98.648438 29.871094 L 98.648438 29.316406 C 98.183594 29.316406 97.785156 28.902344 97.785156 28.242188 "/>
<path style=" stroke:none;fill-rule:nonzero;fill:rgb(15.289307%,16.125488%,43.319702%);fill-opacity:1;" d="M 111.296875 19.710938 L 111.296875 20.25 C 111.757812 20.25 112.15625 20.664062 112.15625 21.324219 L 112.15625 23.847656 L 108.097656 23.847656 L 108.097656 21.324219 C 108.097656 20.664062 108.496094 20.25 108.960938 20.25 L 108.960938 19.710938 C 107.390625 19.789062 105.824219 19.789062 104.242188 19.710938 L 104.242188 20.25 C 104.703125 20.25 105.101562 20.664062 105.101562 21.324219 L 105.101562 28.242188 C 105.101562 28.902344 104.703125 29.316406 104.242188 29.316406 L 104.242188 29.871094 C 105.808594 29.792969 107.390625 29.792969 108.960938 29.871094 L 108.960938 29.316406 C 108.496094 29.316406 108.097656 28.902344 108.097656 28.242188 L 108.097656 25.078125 L 112.15625 25.078125 L 112.15625 28.242188 C 112.15625 28.902344 111.757812 29.316406 111.296875 29.316406 L 111.296875 29.871094 C 112.863281 29.792969 114.445312 29.792969 116.011719 29.871094 L 116.011719 29.316406 C 115.550781 29.316406 115.152344 28.902344 115.152344 28.242188 L 115.152344 21.324219 C 115.152344 20.664062 115.550781 20.25 116.011719 20.25 L 116.011719 19.710938 C 114.445312 19.789062 112.878906 19.789062 111.296875 19.710938 "/>
<path style=" stroke:none;fill-rule:nonzero;fill:rgb(15.289307%,16.125488%,43.319702%);fill-opacity:1;" d="M 121.636719 28.703125 C 120.855469 28.703125 120.226562 27.917969 120.226562 26.167969 C 120.226562 24.308594 120.855469 23.628906 121.636719 23.628906 C 122.421875 23.628906 123.050781 24.308594 123.050781 26.167969 C 123.050781 27.933594 122.421875 28.703125 121.636719 28.703125 Z M 121.636719 22.261719 C 119.609375 22.261719 118.964844 22.710938 118.179688 23.476562 C 117.488281 24.152344 117.089844 25.058594 117.089844 26.210938 C 117.089844 27.335938 117.488281 28.242188 118.179688 28.917969 C 118.964844 29.6875 119.609375 30.132812 121.636719 30.132812 C 123.664062 30.132812 124.3125 29.6875 125.097656 28.917969 C 125.785156 28.242188 126.1875 27.335938 126.1875 26.183594 C 126.1875 25.058594 125.785156 24.152344 125.097656 23.476562 C 124.3125 22.710938 123.664062 22.261719 121.636719 22.261719 "/>
<path style=" stroke:none;fill-rule:nonzero;fill:rgb(15.289307%,16.125488%,43.319702%);fill-opacity:1;" d="M 131.148438 28.242188 L 131.148438 20.757812 C 131.148438 20.128906 131.195312 19.234375 131.257812 18.589844 L 131.195312 18.558594 C 129.90625 19.097656 128.554688 19.40625 127.171875 19.574219 L 127.171875 20.128906 C 127.632812 20.128906 128.152344 20.617188 128.152344 21.28125 L 128.152344 28.242188 C 128.152344 28.902344 127.753906 29.316406 127.292969 29.316406 L 127.292969 29.871094 C 128.859375 29.792969 130.441406 29.792969 132.011719 29.871094 L 132.011719 29.316406 C 131.550781 29.316406 131.148438 28.902344 131.148438 28.242188 "/>
<path style=" stroke:none;fill-rule:nonzero;fill:rgb(15.289307%,16.125488%,43.319702%);fill-opacity:1;" d="M 136.6875 28.261719 L 136.6875 23.789062 C 136.6875 23.160156 136.734375 22.265625 136.796875 21.621094 L 136.71875 21.589844 C 135.441406 22.113281 134.074219 22.4375 132.707031 22.605469 L 132.707031 23.160156 C 133.167969 23.160156 133.691406 23.652344 133.691406 24.3125 L 133.691406 28.261719 C 133.691406 28.921875 133.289062 29.335938 132.832031 29.335938 L 132.832031 29.890625 C 134.398438 29.8125 135.980469 29.8125 137.550781 29.890625 L 137.550781 29.335938 C 137.089844 29.335938 136.6875 28.921875 136.6875 28.261719 "/>
<path style=" stroke:none;fill-rule:nonzero;fill:rgb(15.289307%,16.125488%,43.319702%);fill-opacity:1;" d="M 135.058594 21.53125 C 136.058594 21.53125 136.855469 20.929688 136.855469 20.195312 C 136.855469 19.457031 136.058594 18.855469 135.058594 18.855469 C 134.058594 18.855469 133.261719 19.457031 133.261719 20.195312 C 133.261719 20.929688 134.058594 21.53125 135.058594 21.53125 "/>
<path style=" stroke:none;fill-rule:nonzero;fill:rgb(15.289307%,16.125488%,43.319702%);fill-opacity:1;" d="M 143.34375 28.335938 C 142.636719 28.335938 142.066406 27.648438 142.066406 26.0625 C 142.066406 24.386719 142.636719 23.789062 143.34375 23.789062 C 144.050781 23.789062 144.617188 24.066406 144.617188 26.0625 C 144.617188 27.984375 144.050781 28.335938 143.34375 28.335938 Z M 147.613281 28.261719 L 147.613281 20.777344 C 147.613281 20.144531 147.660156 19.285156 147.707031 18.640625 L 147.628906 18.578125 C 146.339844 19.117188 145.003906 19.425781 143.632812 19.59375 L 143.632812 20.144531 C 144.097656 20.144531 144.617188 20.640625 144.617188 21.300781 L 144.632812 22.988281 C 144.078125 22.511719 143.433594 22.253906 142.175781 22.253906 C 140.359375 22.253906 138.792969 24.019531 138.792969 26.171875 C 138.792969 28.320312 140.269531 30.074219 142.082031 30.074219 C 143.234375 30.074219 144.003906 29.460938 144.417969 28.875 L 144.632812 28.875 L 144.632812 29.890625 C 145.910156 29.8125 147.199219 29.8125 148.476562 29.890625 L 148.476562 29.335938 C 148.015625 29.335938 147.613281 28.921875 147.613281 28.261719 "/>
<path style=" stroke:none;fill-rule:nonzero;fill:rgb(15.289307%,16.125488%,43.319702%);fill-opacity:1;" d="M 154.59375 27.476562 C 154.59375 27.628906 153.960938 28.230469 153.4375 28.230469 C 152.917969 28.230469 152.257812 27.96875 152.269531 27.261719 C 152.285156 26.664062 152.824219 26.460938 153.4375 26.277344 C 153.839844 26.15625 154.269531 26.046875 154.59375 25.832031 Z M 157.632812 28.320312 L 157.632812 24.941406 C 157.632812 22.867188 156.050781 22.082031 153.53125 22.082031 C 152.53125 22.082031 151.136719 22.375 150.304688 22.636719 L 150.152344 24.710938 L 150.71875 24.710938 L 150.886719 24.359375 C 151.257812 23.589844 152.085938 23.390625 152.839844 23.371094 C 154.070312 23.359375 154.59375 23.925781 154.59375 24.585938 L 154.59375 24.863281 C 153.777344 25.203125 152.332031 25.464844 151.316406 25.554688 C 150.410156 25.632812 149.460938 26.324219 149.460938 27.613281 C 149.460938 29.0625 150.519531 30.089844 151.917969 30.089844 C 153.054688 30.089844 154.070312 29.414062 154.636719 28.722656 L 154.777344 28.722656 L 154.855469 29.890625 C 156.007812 29.8125 157.144531 29.8125 158.296875 29.890625 L 158.296875 29.335938 C 157.835938 29.335938 157.632812 28.984375 157.632812 28.320312 "/>
<path style=" stroke:none;fill-rule:nonzero;fill:rgb(15.289307%,16.125488%,43.319702%);fill-opacity:1;" d="M 164.214844 22.28125 L 164.214844 22.851562 C 164.671875 22.851562 165.089844 23.28125 164.921875 23.925781 L 164.042969 27.246094 L 163.949219 27.230469 L 163.027344 23.851562 C 162.859375 23.207031 163.230469 22.835938 163.6875 22.835938 L 163.6875 22.28125 C 162.121094 22.359375 160.554688 22.359375 158.972656 22.28125 L 158.972656 22.835938 C 159.433594 22.835938 159.617188 23.34375 159.832031 23.972656 L 161.691406 29.472656 L 163.460938 29.472656 C 163.261719 30.214844 162.691406 30.8125 161.753906 30.8125 C 161.199219 30.8125 160.585938 30.335938 160.402344 29.707031 L 159.953125 29.707031 L 159.953125 31.828125 C 160.339844 32.257812 160.9375 32.578125 161.644531 32.578125 C 163.414062 32.578125 164.597656 31.566406 165.089844 29.78125 L 166.6875 23.972656 C 166.855469 23.34375 167.238281 22.835938 167.699219 22.835938 L 167.699219 22.28125 C 166.546875 22.359375 165.378906 22.359375 164.214844 22.28125 "/>
<path style=" stroke:none;fill-rule:nonzero;fill:rgb(15.289307%,16.125488%,43.319702%);fill-opacity:1;" d="M 173.558594 24.941406 C 172.542969 24.726562 171.574219 24.695312 171.574219 24.15625 C 171.574219 23.558594 172.035156 23.296875 172.941406 23.296875 C 173.695312 23.296875 174.539062 23.605469 174.96875 24.339844 L 175.140625 24.632812 L 175.707031 24.632812 L 175.492188 22.636719 C 174.664062 22.375 173.601562 22.082031 172.601562 22.082031 C 170.082031 22.082031 168.671875 22.925781 168.671875 25.003906 C 168.671875 26.1875 169.945312 26.753906 171.113281 26.96875 C 172.15625 27.167969 173.097656 27.1875 173.097656 27.722656 C 173.097656 28.136719 172.835938 28.691406 171.605469 28.675781 C 170.851562 28.660156 169.835938 28.398438 169.390625 27.429688 L 169.160156 26.941406 L 168.652344 26.941406 L 168.515625 29.089844 C 169.375 29.597656 170.453125 30.011719 171.894531 30.011719 C 174.414062 30.011719 176 28.738281 176 27.152344 C 176 25.679688 174.738281 25.1875 173.558594 24.941406 "/>
</g>
</svg>

<svg xmlns="http://www.w3.org/2000/svg" width="176pt" height="50.813" viewBox="0 0 176 38.11"><defs><clipPath id="a"><path d="M10 19h28v19.11H10Zm0 0"/></clipPath></defs><path d="M7.531 18.441c13.137-.386 21.59-5.609 26.125-10.066-1.613-2.23-3.765-4.305-6.453-5.84-4.535 9.297-12.758 14.367-19.672 15.75z" style="stroke:none;fill-rule:nonzero;fill:#284da4;fill-opacity:1"/><path d="M34.348 9.45c-3.844 3.765-9.989 7.378-16.907 8.835v.156h19.903c0-2.539-1-5.84-2.996-8.992" style="stroke:none;fill-rule:nonzero;fill:#40a2ca;fill-opacity:1"/><path d="M0 18.824c9.988 0 20.21-5.531 26.125-16.828A19.86 19.86 0 0 0 17.367 0c0 5.223-2.23 17.29-17.367 18.672z" style="stroke:none;fill-rule:nonzero;fill:#27296e;fill-opacity:1"/><path d="M29.047 19.668c-13.14.387-20.824 5.996-25.36 10.453 1.614 2.227 2.997 3.918 5.688 5.453 4.531-9.297 12.754-14.367 19.672-15.75z" style="stroke:none;fill-rule:nonzero;fill:#f46e16;fill-opacity:1"/><path d="M2.996 29.043c3.844-3.762 9.223-7.762 16.137-9.219v-.156L0 20.055c0 2.535 1 5.84 2.996 8.988" style="stroke:none;fill-rule:nonzero;fill:#efee0e;fill-opacity:1"/><g clip-path="url(#a)"><path d="M37.344 19.668c-9.989 0-20.977 5.148-26.895 16.445 2.535 1.23 5.457 1.996 8.762 1.996 0-5.222 2.996-16.902 18.133-18.285z" style="stroke:none;fill-rule:nonzero;fill:#ed1d24;fill-opacity:1"/></g><path d="M46.504 28.332h-1.598v-3.254h1.598a1.61 1.61 0 0 1 1.598 1.625c0 .906-.723 1.629-1.598 1.629m-1.598-7.082h1.477c.765 0 1.398.582 1.398 1.305 0 .722-.633 1.308-1.398 1.308h-1.477Zm4.227 3.441v-.058c1.273-.324 2.043-1.23 2.043-2.403 0-1.503-1.336-2.52-3.766-2.52h-6.363v.556c.46 0 .863.414.863 1.078v6.898c0 .66-.402 1.074-.863 1.074v.555h6.871c2.52 0 3.902-.922 3.902-2.644 0-1.32-1.105-2.336-2.687-2.536M57.953 27.457c0 .152-.629.754-1.152.754-.524 0-1.184-.262-1.168-.969.015-.597.55-.8 1.168-.984.398-.121.828-.23 1.152-.445Zm3.043.848v-3.383c0-2.074-1.582-2.86-4.101-2.86-1 0-2.399.293-3.23.555l-.153 2.074h.57l.168-.355c.367-.766 1.2-.965 1.953-.98 1.227-.016 1.75.554 1.75 1.214v.274c-.812.34-2.258.601-3.273.691-.907.078-1.86.77-1.86 2.063 0 1.441 1.059 2.472 2.457 2.472 1.137 0 2.153-.675 2.723-1.367h.137l.078 1.168a25 25 0 0 1 3.441 0v-.555c-.46 0-.66-.351-.66-1.011M66.48 28.242v-7.484c0-.63.047-1.524.11-2.168l-.063-.031c-1.289.539-2.64.847-4.023 1.015v.555c.46 0 .98.488.98 1.152v6.961c0 .66-.398 1.074-.859 1.074v.555a48 48 0 0 1 4.719 0v-.555c-.461 0-.864-.414-.864-1.074M76.809 28.195l-1.536-3.304 1.66-1.723c.153-.152.368-.352.524-.352v-.554h-4.121v.554c.676 0 .984.262.984.602 0 .152-.11.383-.34.672l-1.289 1.57h-.46v-4.902c0-.664.046-1.582.105-2.23-1.305.554-2.688.878-4.086 1.046v.555c.46 0 .98.488.98 1.152v6.961c0 .66-.398 1.074-.859 1.074v.555a48 48 0 0 1 4.719 0v-.555c-.461 0-.86-.414-.86-1.074v-1.785h.399l1.105 2.54c.125.288.309.628.493.874a29 29 0 0 1 3.675 0v-.555c-.234.016-.832-.554-1.093-1.12M83.926 27.457c0 .152-.633.754-1.153.754-.523 0-1.183-.262-1.168-.969.012-.597.551-.8 1.168-.984.399-.121.829-.23 1.153-.445Zm3.043.848v-3.383c0-2.074-1.582-2.86-4.106-2.86-.996 0-2.394.293-3.226.555l-.153 2.074h.567l.168-.355c.37-.766 1.199-.965 1.953-.98 1.23-.016 1.754.554 1.754 1.214v.274c-.817.34-2.262.601-3.274.691-.906.078-1.859.77-1.859 2.063 0 1.441 1.059 2.472 2.457 2.472 1.137 0 2.152-.675 2.719-1.367h.14l.075 1.168a25 25 0 0 1 3.445 0v-.555c-.461 0-.66-.351-.66-1.011M97.785 28.242v-3.351c0-1.875-1.21-2.63-2.394-2.63-1.079 0-2 .65-2.493.985.016-.508.047-1.058.094-1.52l-.168-.109c-1.246.508-2.566.817-3.906.969v.555c.465 0 .984.488.984 1.152v3.95c0 .66-.398 1.073-.859 1.073v.555a46 46 0 0 1 4.625 0v-.555c-.371 0-.77-.414-.77-1.074v-3.305c.23-.246.602-.582 1.047-.644.399-.063.844.23.844.812v3.137c0 .66-.398 1.074-.766 1.074v.555a46 46 0 0 1 4.625 0v-.555c-.464 0-.863-.414-.863-1.074M111.297 19.71v.54c.46 0 .86.414.86 1.074v2.524h-4.06v-2.524c0-.66.4-1.074.864-1.074v-.54c-1.57.08-3.137.08-4.719 0v.54c.461 0 .86.414.86 1.074v6.918c0 .66-.399 1.074-.86 1.074v.555a48 48 0 0 1 4.719 0v-.555c-.465 0-.863-.414-.863-1.074v-3.164h4.058v3.164c0 .66-.398 1.074-.86 1.074v.555a48 48 0 0 1 4.716 0v-.555c-.461 0-.86-.414-.86-1.074v-6.918c0-.66.399-1.074.86-1.074v-.54a48 48 0 0 1-4.715 0M121.637 28.703c-.782 0-1.41-.785-1.41-2.535 0-1.86.628-2.54 1.41-2.54.785 0 1.414.68 1.414 2.54 0 1.766-.63 2.535-1.414 2.535m0-6.441c-2.028 0-2.672.449-3.457 1.215-.692.675-1.09 1.582-1.09 2.734 0 1.125.398 2.031 1.09 2.707.785.77 1.43 1.215 3.457 1.215s2.675-.445 3.46-1.215c.688-.676 1.09-1.582 1.09-2.734 0-1.125-.402-2.032-1.09-2.707-.784-.766-1.433-1.215-3.46-1.215M131.148 28.242v-7.484c0-.63.047-1.524.11-2.168l-.063-.031c-1.289.539-2.64.847-4.023 1.015v.555c.46 0 .98.488.98 1.152v6.961c0 .66-.398 1.074-.859 1.074v.555a48 48 0 0 1 4.719 0v-.555c-.461 0-.864-.414-.864-1.074M136.688 28.262v-4.473c0-.629.046-1.523.109-2.168l-.078-.031c-1.278.523-2.645.848-4.012 1.015v.555c.461 0 .984.492.984 1.152v3.95c0 .66-.402 1.074-.859 1.074v.555a48 48 0 0 1 4.719 0v-.555c-.461 0-.863-.414-.863-1.074M135.059 21.531c1 0 1.796-.601 1.796-1.336 0-.738-.796-1.34-1.796-1.34s-1.797.602-1.797 1.34c0 .735.797 1.336 1.797 1.336M143.344 28.336c-.707 0-1.278-.688-1.278-2.273 0-1.676.57-2.274 1.278-2.274.707 0 1.273.277 1.273 2.273 0 1.922-.566 2.274-1.273 2.274m4.27-.074v-7.485c0-.632.046-1.492.093-2.136l-.078-.063c-1.29.54-2.625.848-3.996 1.016v.55c.465 0 .984.497.984 1.157l.016 1.687c-.555-.476-1.2-.734-2.457-.734-1.817 0-3.383 1.766-3.383 3.918 0 2.148 1.477 3.902 3.289 3.902a2.81 2.81 0 0 0 2.336-1.199h.215v1.016a32 32 0 0 1 3.844 0v-.555c-.461 0-.864-.414-.864-1.074M154.594 27.477c0 .152-.633.753-1.156.753-.52 0-1.18-.261-1.168-.968.015-.598.554-.801 1.167-.985.403-.12.833-.23 1.157-.445Zm3.039.843v-3.379c0-2.074-1.582-2.859-4.102-2.859-1 0-2.394.293-3.226.555l-.153 2.074h.567l.168-.352c.37-.77 1.199-.968 1.953-.988 1.23-.012 1.754.555 1.754 1.215v.277c-.817.34-2.262.602-3.278.692-.906.078-1.855.77-1.855 2.058 0 1.45 1.059 2.477 2.457 2.477 1.137 0 2.152-.676 2.719-1.367h.14l.078 1.168a25 25 0 0 1 3.442 0v-.555c-.461 0-.664-.352-.664-1.016M164.215 22.281v.57c.457 0 .875.43.707 1.075l-.879 3.32-.094-.016-.922-3.378c-.168-.645.203-1.016.66-1.016v-.555a48 48 0 0 1-4.714 0v.555c.46 0 .644.508.859 1.137l1.86 5.5h1.769c-.2.742-.77 1.34-1.707 1.34-.555 0-1.168-.477-1.352-1.106h-.449v2.121c.387.43.984.75 1.692.75 1.77 0 2.953-1.012 3.445-2.797l1.597-5.808c.168-.63.551-1.137 1.012-1.137v-.555a26 26 0 0 1-3.484 0M173.559 24.941c-1.016-.214-1.985-.246-1.985-.785 0-.597.461-.86 1.367-.86.754 0 1.598.31 2.028 1.044l.172.293h.566l-.215-1.996c-.828-.262-1.89-.555-2.89-.555-2.52 0-3.93.844-3.93 2.922 0 1.183 1.273 1.75 2.441 1.965 1.043.199 1.985.218 1.985.754 0 .414-.262.968-1.493.953-.753-.016-1.77-.278-2.214-1.246l-.23-.489h-.509l-.136 2.149c.859.508 1.937.922 3.379.922 2.52 0 4.105-1.274 4.105-2.86 0-1.472-1.262-1.965-2.441-2.21" style="stroke:none;fill-rule:nonzero;fill:#27296e;fill-opacity:1"/></svg>
